storage/app/icons/phosphoricons/bold/unite-square-bold.svg

<svg xmlns="http://www.w3.org/2000/svg" fill="currentColor" viewBox="0 0 256 256"><path d="M228 160V96a12 12 0 0 0-12-12h-44V40a12 12 0 0 0-12-12H40a12 12 0 0 0-12 12v120a12 12 0 0 0 12 12h44v44a12 12 0 0 0 12 12h120a12 12 0 0 0 12-12zm-63 44L52 91V69l135 135ZM69 52h22l113 113v22Zm135 79-23-23h23Zm-56-56-23-23h23Zm-96 50 23 23H52Zm56 56 23 23h-23Z"/></svg>

<svg xmlns="http://www.w3.org/2000/svg" viewBox="0 0 256 256" fill="currentColor"><path d="M228,160V96a12,12,0,0,0-12-12H172V40a12,12,0,0,0-12-12H40A12,12,0,0,0,28,40V96h0v64a12,12,0,0,0,12,12H84v44a12,12,0,0,0,12,12H216a12,12,0,0,0,12-12V160Zm-63,44L52,91V69L187,204ZM69,52H91L204,165V187Zm135,79-23-23h23ZM148,75,125,52h23ZM52,125l23,23H52Zm56,56,23,23H108Z"/></svg>
